symbols-de/shields/motorway_6x3_z18.svg

<?xml version="1.0" encoding="UTF-8" standalone="no"?>
<svg
   xmlns:dc="http://purl.org/dc/elements/1.1/"
   xmlns:cc="http://creativecommons.org/ns#"
   xmlns:rdf="http://www.w3.org/1999/02/22-rdf-syntax-ns#"
   xmlns:svg="http://www.w3.org/2000/svg"
   xmlns="http://www.w3.org/2000/svg"
   xmlns:sodipodi="http://sodipodi.sourceforge.net/DTD/sodipodi-0.dtd"
   xmlns:inkscape="http://www.inkscape.org/namespaces/inkscape"
   width="100%"
   height="100%"
   viewBox="0 0 53.0 39.0"
   id="svg2"
   version="1.1"
   inkscape:version="0.91 r13725"
   sodipodi:docname="autobahn_6x3_z18.svg">
  <metadata
     id="metadata9">
    <rdf:RDF>
      <cc:Work
         rdf:about="">
        <dc:format>image/svg+xml</dc:format>
        <dc:type
           rdf:resource="http://purl.org/dc/dcmitype/StillImage" />
        <dc:title></dc:title>
      </cc:Work>
    </rdf:RDF>
  </metadata>
  <defs
     id="defs7" />
  <sodipodi:namedview
     pagecolor="#ffffff"
     bordercolor="#666666"
     borderopacity="1"
     objecttolerance="10"
     gridtolerance="10"
     guidetolerance="10"
     inkscape:pageopacity="0"
     inkscape:pageshadow="2"
     inkscape:window-width="807"
     inkscape:window-height="664"
     id="namedview5"
     showgrid="false"
     inkscape:zoom="6.0512821"
     inkscape:cx="26.5"
     inkscape:cy="19.5"
     inkscape:window-x="253"
     inkscape:window-y="175"
     inkscape:window-maximized="0"
     inkscape:current-layer="svg2" />
  <path
     style="fill:#365eaf;fill-opacity:1;stroke:#0528a2;stroke-width:1;stroke-miterlimit:4;stroke-dasharray:none;stroke-opacity:1"
     d="m 26.500001,0.50000221 c -0.372758,0 -0.558594,0.003909 -0.558594,0.0139189 L 1.3398454,2.6152384 C 0.78070487,2.7159927 0.50000001,2.8683086 0.50000001,3.0698291 l 0,32.8603459 c 0,0.201518 0.28070486,0.353829 0.83984539,0.454589 l 24.6015616,2.101317 c 0,0.0101 0.18584,0.01392 0.558594,0.01392 0.37276,0 0.558593,-0.0038 0.558593,-0.01392 l 24.601562,-2.10132 c 0.559142,-0.100754 0.717264,-0.266673 0.839845,-0.454589 0,-17.646727 0,-17.269567 0,-32.8603451 0,-0.2015205 -0.280703,-0.3538353 -0.839845,-0.4545907 L 27.058594,0.5139189 C 27.058594,0.5038218 26.872755,0.5 26.500001,0.5 Z"
     id="path6"
     inkscape:connector-curvature="0"
     sodipodi:nodetypes="sccccccsccccccs" />
</svg>

<?xml version="1.0" encoding="UTF-8"?>
<svg xmlns="http://www.w3.org/2000/svg" xmlns:xlink="http://www.w3.org/1999/xlink" width="51pt" height="51pt" viewBox="0 0 51 51" version="1.1">
<g id="surface1">
<path style="fill-rule:nonzero;fill:rgb(21.176471%,36.862745%,68.627451%);fill-opacity:1;stroke-width:1;stroke-linecap:butt;stroke-linejoin:miter;stroke:rgb(1.960784%,15.686275%,63.529412%);stroke-opacity:1;stroke-miterlimit:4;" d="M 26.5 0.498851 C 26.126532 0.498851 25.939798 0.504825 25.939798 0.513787 L 1.339614 2.616728 C 0.779412 2.715303 0.499311 2.867647 0.499311 3.070772 L 0.499311 35.929228 C 0.499311 36.132353 0.779412 36.284697 1.339614 36.383272 L 25.939798 38.486213 C 25.939798 38.495175 26.126532 38.501149 26.5 38.501149 C 26.873468 38.501149 27.060202 38.495175 27.060202 38.486213 L 51.660386 36.383272 C 52.220588 36.284697 52.378906 36.117417 52.500689 35.929228 C 52.500689 18.284237 52.500689 18.660616 52.500689 3.070772 C 52.500689 2.867647 52.220588 2.715303 51.660386 2.616728 L 27.060202 0.513787 C 27.060202 0.504825 26.873468 0.498851 26.5 0.498851 Z M 26.5 0.498851 " transform="matrix(0.962264,0,0,1.307692,0,0)"/>
</g>
</svg>
